carriers/inTime.svg

<svg width="128" height="64" viewBox="0 0 128 64" fill="none" xmlns="http://www.w3.org/2000/svg">
<rect width="128" height="64" rx="6" fill="white"/>
<path fill-rule="evenodd" clip-rule="evenodd" d="M14 45.3994V23.9175H17.7038V45.3994H14ZM36.2226 45.3994L36.23 32.5992C36.2296 31.9768 36.1927 31.355 36.1196 30.7369C36.0558 30.1475 35.8917 29.5733 35.6344 29.0391C35.3917 28.5412 35.0226 28.1157 34.5641 27.805C34.0048 27.4633 33.3556 27.2981 32.7011 27.3309C32.1137 27.3307 31.5297 27.4199 30.9692 27.5954C30.4018 27.7726 29.8518 28.0014 29.3262 28.2791C28.797 28.5584 28.2885 28.8752 27.8047 29.2273C27.3768 29.6576 26.9722 30.1106 26.5928 30.5843V45.3994H22.889V23.9175H26.5928V26.8805C27.2106 26.425 27.5469 25.7798 28.1351 25.4116C28.7057 25.0538 29.303 24.7405 29.9218 24.4746C30.53 24.2171 31.1615 24.0186 31.8077 23.882C32.5005 23.7389 33.2063 23.6689 33.9137 23.6731C34.7008 23.6746 35.4815 23.8163 36.2189 24.0916C36.985 24.3766 37.6781 24.8285 38.2478 25.4146C38.8874 26.0883 39.3794 26.8881 39.6923 27.7628C40.0627 28.7258 39.9264 29.9606 39.9264 31.328V45.4024H36.2226V45.3994ZM53.2599 45.3994V23.9175H56.9637V45.3994H53.2599ZM88.8161 45.3994L88.9072 31.8273C88.9104 31.2112 88.8661 30.5958 88.7746 29.9865C88.7019 29.4675 88.5331 28.9666 88.2769 28.5095C88.039 28.0958 87.6911 27.7563 87.2717 27.5287C86.75 27.2724 86.1724 27.1509 85.5916 27.1754C84.9666 27.1721 84.3446 27.2612 83.7457 27.4398C83.1702 27.6131 82.6143 27.846 82.0871 28.1346C81.5751 28.4151 81.087 28.7371 80.6278 29.0976C80.1789 29.4497 79.7555 29.7954 79.3574 30.1347C79.3082 30.2874 79.2511 30.4375 79.1863 30.5843V45.3994H75.4826V32.0658C75.4549 31.3977 75.3789 30.7325 75.2551 30.0754C75.1821 29.5426 75.014 29.0273 74.7588 28.5539C74.5223 28.1275 74.1706 27.7761 73.744 27.5398C73.2215 27.2775 72.6408 27.1523 72.0566 27.1761C71.4358 27.1723 70.8183 27.2653 70.2262 27.4517C69.6611 27.6326 69.1152 27.8688 68.5965 28.1569C68.088 28.4411 67.6014 28.763 67.1409 29.1199C66.6851 29.4724 66.2587 29.8253 65.8616 30.1784L65.8528 45.3994H62.149V23.9175H65.8528V26.8805C66.9685 25.8818 68.22 25.0458 69.5699 24.3975C70.7294 23.9315 71.9655 23.6849 73.2151 23.6701C74.4089 23.6334 75.5851 23.9641 76.5848 24.6175C77.4946 25.2305 78.1945 26.1077 78.59 27.1309C79.7251 26.0835 81.0227 25.2274 82.4323 24.5961C83.0697 24.3104 83.731 24.0816 84.4086 23.9123C85.0333 23.7545 85.6748 23.6732 86.319 23.6701C87.1551 23.6676 87.9874 23.7823 88.7917 24.0109C89.5717 24.2308 90.2926 24.6226 90.9013 25.1576C91.5471 25.745 92.0494 26.4728 92.3695 27.285C92.7669 28.3334 92.9544 29.4496 92.9214 30.5702L93.2606 45.3994H88.8161ZM100.305 35.7303C100.298 36.649 100.451 37.5618 100.757 38.4282C101.045 39.2447 101.491 39.9964 102.07 40.64C102.658 41.2843 103.376 41.7967 104.176 42.1438C105.079 42.5268 106.052 42.7151 107.032 42.6964C107.968 42.6949 108.896 42.5346 109.778 42.2223C110.631 41.9303 111.454 41.5583 112.237 41.1112L113.362 43.8594C112.349 44.5804 111.218 45.1212 110.021 45.4579C108.807 45.8163 107.548 46.0006 106.282 46.0053C104.718 46.0452 103.167 45.7206 101.75 45.0572C100.521 44.46 99.4404 43.5978 98.5852 42.5327C97.732 41.4539 97.0987 40.2182 96.7214 38.8956C96.313 37.4954 96.1087 36.0436 96.1148 34.5851C96.1033 33.1314 96.319 31.6848 96.754 30.2976C97.1413 29.0411 97.7585 27.8674 98.5741 26.8361C99.3461 25.8702 100.316 25.0809 101.419 24.5213C102.572 23.9459 103.847 23.655 105.136 23.6731C106.428 23.651 107.709 23.9183 108.885 24.4553C109.976 24.9685 110.932 25.7313 111.675 26.682C112.469 27.7181 113.057 28.897 113.406 30.1547C113.818 31.6249 114.018 33.1465 113.999 34.6733V35.7318H100.305V35.7303ZM109.459 30.5488C109.276 29.8931 108.982 29.274 108.588 28.7191C108.203 28.1811 107.706 27.7334 107.131 27.4072C106.507 27.0655 105.803 26.8944 105.091 26.9109C104.391 26.8993 103.699 27.0582 103.073 27.3739C102.486 27.676 101.968 28.0964 101.551 28.6087C101.119 29.1455 100.793 29.7589 100.588 30.4169C100.365 31.1227 100.253 31.859 100.257 32.5992H109.739C109.74 31.9058 109.646 31.2156 109.459 30.548V30.5488Z" fill="black"/>
<path fill-rule="evenodd" clip-rule="evenodd" d="M57.7045 21.6952H48.8155V45.3993H45.1117V21.6952H35.4819V17.9915H59.1512L57.7045 21.6952Z" fill="#D10074"/>
</svg>

<svg xmlns="http://www.w3.org/2000/svg" width="128" height="64" fill="none"><rect width="128" height="64" fill="#fff" rx="6"/><path fill="#000" fill-rule="evenodd" d="M14 45.4V23.917h3.704v21.481H14Zm22.223 0 .007-12.8c0-.623-.037-1.245-.11-1.863a5.203 5.203 0 0 0-.486-1.698 3.167 3.167 0 0 0-1.07-1.234 3.26 3.26 0 0 0-1.863-.474 5.79 5.79 0 0 0-1.732.264 9.719 9.719 0 0 0-1.643.684c-.529.28-1.038.596-1.521.948-.428.43-.833.884-1.212 1.357V45.4h-3.704V23.917h3.704v2.963c.618-.455.954-1.1 1.542-1.468.57-.358 1.168-.671 1.787-.937.608-.258 1.24-.456 1.886-.593a10.114 10.114 0 0 1 2.106-.209 6.627 6.627 0 0 1 2.305.419c.766.285 1.46.736 2.029 1.323a6.677 6.677 0 0 1 1.444 2.348c.37.963.234 2.198.234 3.565v14.074h-3.703V45.4Zm17.037 0V23.917h3.704v21.481H53.26Zm35.556 0 .091-13.573a11.976 11.976 0 0 0-.132-1.84 4.218 4.218 0 0 0-.498-1.477 2.578 2.578 0 0 0-1.005-.981 3.478 3.478 0 0 0-1.68-.354 6.342 6.342 0 0 0-1.846.265 8.646 8.646 0 0 0-1.659.695c-.512.28-1 .602-1.46.963a40.35 40.35 0 0 0-1.27 1.037c-.049.152-.106.302-.17.45v14.814h-3.704V32.066a13.849 13.849 0 0 0-.228-1.99 4.491 4.491 0 0 0-.496-1.522 2.602 2.602 0 0 0-1.015-1.014 3.448 3.448 0 0 0-1.687-.364 5.974 5.974 0 0 0-1.83.276 9.02 9.02 0 0 0-1.63.705c-.509.284-.996.606-1.456.963-.456.352-.882.705-1.28 1.058L65.854 45.4h-3.704V23.917h3.704v2.963a15.883 15.883 0 0 1 3.717-2.482 10.096 10.096 0 0 1 3.645-.728 5.832 5.832 0 0 1 3.37.947c.91.613 1.61 1.49 2.005 2.514a14.262 14.262 0 0 1 3.842-2.535 11.86 11.86 0 0 1 1.977-.684 7.957 7.957 0 0 1 1.91-.242 8.946 8.946 0 0 1 2.473.34c.78.22 1.5.613 2.11 1.148a5.702 5.702 0 0 1 1.468 2.127 8.558 8.558 0 0 1 .551 3.285l.34 14.83h-4.445Zm11.489-9.67a7.92 7.92 0 0 0 .452 2.698 6.579 6.579 0 0 0 1.313 2.212 6.183 6.183 0 0 0 2.106 1.504 6.973 6.973 0 0 0 2.856.552 8.265 8.265 0 0 0 2.746-.474 14.295 14.295 0 0 0 2.459-1.11l1.125 2.747a10.811 10.811 0 0 1-3.341 1.599 13.381 13.381 0 0 1-3.739.547 10.08 10.08 0 0 1-4.532-.948 9.234 9.234 0 0 1-3.165-2.524 10.512 10.512 0 0 1-1.864-3.637 15.168 15.168 0 0 1-.606-4.31 13.96 13.96 0 0 1 .639-4.288 10.627 10.627 0 0 1 1.82-3.462 8.654 8.654 0 0 1 2.845-2.315 8.072 8.072 0 0 1 3.717-.848 8.669 8.669 0 0 1 3.749.782 7.703 7.703 0 0 1 2.79 2.227 10.189 10.189 0 0 1 1.731 3.473c.412 1.47.612 2.992.593 4.518v1.059h-13.694v-.002Zm9.154-5.181a5.897 5.897 0 0 0-.871-1.83 4.557 4.557 0 0 0-1.457-1.312 4.053 4.053 0 0 0-2.04-.496 4.321 4.321 0 0 0-2.018.463 4.787 4.787 0 0 0-1.522 1.235 5.485 5.485 0 0 0-.963 1.808 7.116 7.116 0 0 0-.331 2.182h9.482a7.564 7.564 0 0 0-.28-2.051Z" clip-rule="evenodd"/><path fill="#D10074" fill-rule="evenodd" d="M57.705 21.695h-8.89V45.4h-3.703V21.695h-9.63v-3.704h23.67l-1.447 3.704Z" clip-rule="evenodd"/></svg>
